icons/solid/external-link.svg

<svg width="24" height="24" viewBox="0 0 24 24" fill="none" xmlns="http://www.w3.org/2000/svg">
<path fill-rule="evenodd" clip-rule="evenodd" d="M3 6C3 4.34315 4.34315 3 6 3H18C19.6569 3 21 4.34315 21 6V18C21 19.6569 19.6569 21 18 21H6C4.34315 21 3 19.6569 3 18V6ZM13 5C12.4477 5 12 5.44772 12 6C12 6.55228 12.4477 7 13 7H15.5858L11.2929 11.2929C10.9024 11.6834 10.9024 12.3166 11.2929 12.7071C11.6834 13.0976 12.3166 13.0976 12.7071 12.7071L17 8.41421V11C17 11.5523 17.4477 12 18 12C18.5523 12 19 11.5523 19 11V6C19 5.44772 18.5523 5 18 5H13Z" fill="currentColor"/>
</svg>

<svg width="24" height="24" fill="none" xmlns="http://www.w3.org/2000/svg"><path fill-rule="evenodd" clip-rule="evenodd" d="M3 6a3 3 0 013-3h12a3 3 0 013 3v12a3 3 0 01-3 3H6a3 3 0 01-3-3V6zm10-1a1 1 0 100 2h2.586l-4.293 4.293a1 1 0 001.414 1.414L17 8.414V11a1 1 0 102 0V6a1 1 0 00-1-1h-5z" fill="currentColor"/></svg>
